images/50320656.svg

<?xml version="1.0" encoding="UTF-8"?>
<svg xmlns="http://www.w3.org/2000/svg" xmlns:xlink="http://www.w3.org/1999/xlink" width="300pt" height="300pt" viewBox="0 0 300 300" version="1.1">
<defs>
<g>
<symbol overflow="visible" id="glyph0-0">
<path style="stroke:none;" d="M 0.75 2.65625 L 0.75 -10.578125 L 8.25 -10.578125 L 8.25 2.65625 Z M 1.59375 1.8125 L 7.40625 1.8125 L 7.40625 -9.734375 L 1.59375 -9.734375 Z M 1.59375 1.8125 "/>
</symbol>
<symbol overflow="visible" id="glyph0-1">
<path style="stroke:none;" d="M 8.03125 -10.578125 L 8.03125 -9.140625 C 7.46875 -9.398438 6.9375 -9.597656 6.4375 -9.734375 C 5.9375 -9.867188 5.457031 -9.9375 5 -9.9375 C 4.1875 -9.9375 3.5625 -9.78125 3.125 -9.46875 C 2.6875 -9.15625 2.46875 -8.707031 2.46875 -8.125 C 2.46875 -7.644531 2.613281 -7.28125 2.90625 -7.03125 C 3.195312 -6.789062 3.75 -6.59375 4.5625 -6.4375 L 5.453125 -6.25 C 6.554688 -6.039062 7.367188 -5.671875 7.890625 -5.140625 C 8.421875 -4.609375 8.6875 -3.898438 8.6875 -3.015625 C 8.6875 -1.953125 8.332031 -1.144531 7.625 -0.59375 C 6.914062 -0.0507812 5.875 0.21875 4.5 0.21875 C 3.976562 0.21875 3.425781 0.15625 2.84375 0.03125 C 2.257812 -0.0820312 1.65625 -0.253906 1.03125 -0.484375 L 1.03125 -2 C 1.632812 -1.664062 2.222656 -1.410156 2.796875 -1.234375 C 3.367188 -1.066406 3.9375 -0.984375 4.5 -0.984375 C 5.34375 -0.984375 5.992188 -1.148438 6.453125 -1.484375 C 6.910156 -1.816406 7.140625 -2.289062 7.140625 -2.90625 C 7.140625 -3.445312 6.972656 -3.867188 6.640625 -4.171875 C 6.316406 -4.472656 5.78125 -4.695312 5.03125 -4.84375 L 4.125 -5.03125 C 3.019531 -5.25 2.21875 -5.59375 1.71875 -6.0625 C 1.226562 -6.53125 0.984375 -7.179688 0.984375 -8.015625 C 0.984375 -8.984375 1.320312 -9.742188 2 -10.296875 C 2.6875 -10.859375 3.628906 -11.140625 4.828125 -11.140625 C 5.335938 -11.140625 5.859375 -11.09375 6.390625 -11 C 6.921875 -10.90625 7.46875 -10.765625 8.03125 -10.578125 Z M 8.03125 -10.578125 "/>
</symbol>
<symbol overflow="visible" id="glyph0-2">
<path style="stroke:none;" d="M 1.46875 -10.9375 L 3.46875 -10.9375 L 8.3125 -1.78125 L 8.3125 -10.9375 L 9.75 -10.9375 L 9.75 0 L 7.75 0 L 2.90625 -9.140625 L 2.90625 0 L 1.46875 0 Z M 1.46875 -10.9375 "/>
</symbol>
</g>
</defs>
<g id="surface20965">
<rect x="0" y="0" width="300" height="300" style="fill:rgb(100%,100%,100%);fill-opacity:1;stroke:none;"/>
<path style="fill:none;stroke-width:1.2;stroke-linecap:butt;stroke-linejoin:miter;stroke:rgb(80%,80%,0%);stroke-opacity:1;stroke-miterlimit:10;" d="M 112.179688 183.097656 L 128.730469 176.769531 "/>
<path style="fill:none;stroke-width:1.2;stroke-linecap:butt;stroke-linejoin:miter;stroke:rgb(0%,0%,0%);stroke-opacity:1;stroke-miterlimit:10;" d="M 128.730469 176.769531 L 145.28125 170.4375 "/>
<path style="fill:none;stroke-width:1.2;stroke-linecap:butt;stroke-linejoin:miter;stroke:rgb(0%,0%,0%);stroke-opacity:1;stroke-miterlimit:10;" d="M 89.910156 155.527344 L 101.042969 169.3125 "/>
<path style="fill:none;stroke-width:1.2;stroke-linecap:butt;stroke-linejoin:miter;stroke:rgb(80%,80%,0%);stroke-opacity:1;stroke-miterlimit:10;" d="M 101.042969 169.3125 L 112.179688 183.097656 "/>
<path style=" stroke:none;fill-rule:nonzero;fill:rgb(100%,100%,100%);fill-opacity:1;" d="M 107.179688 174.097656 L 117.179688 174.097656 L 117.179688 192.097656 L 107.179688 192.097656 Z M 107.179688 174.097656 "/>
<g style="fill:rgb(80%,80%,0%);fill-opacity:1;">
  <use xlink:href="#glyph0-1" x="107.179688" y="187.711914"/>
</g>
<path style="fill:none;stroke-width:1.2;stroke-linecap:butt;stroke-linejoin:miter;stroke:rgb(0%,0%,0%);stroke-opacity:1;stroke-miterlimit:10;" d="M 145.28125 170.4375 L 143.46875 135.042969 "/>
<path style="fill:none;stroke-width:1.2;stroke-linecap:butt;stroke-linejoin:miter;stroke:rgb(0%,0%,0%);stroke-opacity:1;stroke-miterlimit:10;" d="M 136.773438 167.324219 L 135.324219 139.011719 "/>
<path style="fill:none;stroke-width:1.2;stroke-linecap:butt;stroke-linejoin:miter;stroke:rgb(0%,0%,0%);stroke-opacity:1;stroke-miterlimit:10;" d="M 145.28125 170.4375 L 174.980469 189.777344 "/>
<path style="fill:none;stroke-width:1.2;stroke-linecap:butt;stroke-linejoin:miter;stroke:rgb(0%,0%,0%);stroke-opacity:1;stroke-miterlimit:10;" d="M 143.46875 135.042969 L 126.359375 130.4375 "/>
<path style="fill:none;stroke-width:1.2;stroke-linecap:butt;stroke-linejoin:miter;stroke:rgb(0%,0%,100%);stroke-opacity:1;stroke-miterlimit:10;" d="M 126.359375 130.4375 L 109.25 125.828125 "/>
<path style="fill:none;stroke-width:1.2;stroke-linecap:butt;stroke-linejoin:miter;stroke:rgb(0%,0%,0%);stroke-opacity:1;stroke-miterlimit:10;" d="M 143.46875 135.042969 L 171.039062 112.773438 "/>
<path style="fill:none;stroke-width:1.2;stroke-linecap:butt;stroke-linejoin:miter;stroke:rgb(0%,0%,100%);stroke-opacity:1;stroke-miterlimit:10;" d="M 109.25 125.828125 L 99.578125 140.679688 "/>
<path style="fill:none;stroke-width:1.2;stroke-linecap:butt;stroke-linejoin:miter;stroke:rgb(0%,0%,0%);stroke-opacity:1;stroke-miterlimit:10;" d="M 99.578125 140.679688 L 89.910156 155.527344 "/>
<path style="fill:none;stroke-width:1.2;stroke-linecap:butt;stroke-linejoin:miter;stroke:rgb(0%,0%,100%);stroke-opacity:1;stroke-miterlimit:10;" d="M 114.300781 133.351562 L 106.566406 145.230469 "/>
<path style="fill:none;stroke-width:1.2;stroke-linecap:butt;stroke-linejoin:miter;stroke:rgb(0%,0%,0%);stroke-opacity:1;stroke-miterlimit:10;" d="M 106.566406 145.230469 L 98.832031 157.109375 "/>
<path style=" stroke:none;fill-rule:nonzero;fill:rgb(100%,100%,100%);fill-opacity:1;" d="M 104.25 116.828125 L 115.25 116.828125 L 115.25 134.828125 L 104.25 134.828125 Z M 104.25 116.828125 "/>
<g style="fill:rgb(0%,0%,100%);fill-opacity:1;">
  <use xlink:href="#glyph0-2" x="104.25" y="130.442383"/>
</g>
<path style="fill:none;stroke-width:1.2;stroke-linecap:butt;stroke-linejoin:miter;stroke:rgb(0%,0%,0%);stroke-opacity:1;stroke-miterlimit:10;" d="M 89.910156 155.527344 L 54.515625 157.339844 "/>
<path style="fill:none;stroke-width:1.2;stroke-linecap:butt;stroke-linejoin:miter;stroke:rgb(0%,0%,0%);stroke-opacity:1;stroke-miterlimit:10;" d="M 54.515625 157.339844 L 35.25 127.59375 "/>
<path style="fill:none;stroke-width:1.2;stroke-linecap:butt;stroke-linejoin:miter;stroke:rgb(0%,0%,0%);stroke-opacity:1;stroke-miterlimit:10;" d="M 171.039062 112.773438 L 204.109375 125.515625 "/>
<path style="fill:none;stroke-width:1.2;stroke-linecap:butt;stroke-linejoin:miter;stroke:rgb(0%,0%,0%);stroke-opacity:1;stroke-miterlimit:10;" d="M 177.34375 106.269531 L 203.800781 116.460938 "/>
<path style="fill:none;stroke-width:1.2;stroke-linecap:butt;stroke-linejoin:miter;stroke:rgb(0%,0%,0%);stroke-opacity:1;stroke-miterlimit:10;" d="M 165.539062 77.765625 L 171.039062 112.773438 "/>
<path style="fill:none;stroke-width:1.2;stroke-linecap:butt;stroke-linejoin:miter;stroke:rgb(0%,0%,0%);stroke-opacity:1;stroke-miterlimit:10;" d="M 204.109375 125.515625 L 231.679688 103.246094 "/>
<path style="fill:none;stroke-width:1.2;stroke-linecap:butt;stroke-linejoin:miter;stroke:rgb(0%,0%,0%);stroke-opacity:1;stroke-miterlimit:10;" d="M 231.679688 103.246094 L 226.179688 68.234375 "/>
<path style="fill:none;stroke-width:1.2;stroke-linecap:butt;stroke-linejoin:miter;stroke:rgb(0%,0%,0%);stroke-opacity:1;stroke-miterlimit:10;" d="M 222.890625 101.039062 L 218.492188 73.03125 "/>
<path style="fill:none;stroke-width:1.2;stroke-linecap:butt;stroke-linejoin:miter;stroke:rgb(0%,0%,0%);stroke-opacity:1;stroke-miterlimit:10;" d="M 231.679688 103.246094 L 264.75 115.988281 "/>
<path style="fill:none;stroke-width:1.2;stroke-linecap:butt;stroke-linejoin:miter;stroke:rgb(0%,0%,0%);stroke-opacity:1;stroke-miterlimit:10;" d="M 226.179688 68.234375 L 193.109375 55.496094 "/>
<path style="fill:none;stroke-width:1.2;stroke-linecap:butt;stroke-linejoin:miter;stroke:rgb(0%,0%,0%);stroke-opacity:1;stroke-miterlimit:10;" d="M 193.109375 55.496094 L 165.539062 77.765625 "/>
<path style="fill:none;stroke-width:1.2;stroke-linecap:butt;stroke-linejoin:miter;stroke:rgb(0%,0%,0%);stroke-opacity:1;stroke-miterlimit:10;" d="M 195.589844 64.207031 L 173.535156 82.023438 "/>
<path style="fill:none;stroke-width:1.2;stroke-linecap:butt;stroke-linejoin:miter;stroke:rgb(0%,0%,0%);stroke-opacity:1;stroke-miterlimit:10;" d="M 174.980469 189.777344 L 173.082031 225.167969 "/>
<path style="fill:none;stroke-width:1.2;stroke-linecap:butt;stroke-linejoin:miter;stroke:rgb(0%,0%,0%);stroke-opacity:1;stroke-miterlimit:10;" d="M 183.117188 193.761719 L 181.597656 222.074219 "/>
<path style="fill:none;stroke-width:1.2;stroke-linecap:butt;stroke-linejoin:miter;stroke:rgb(0%,0%,0%);stroke-opacity:1;stroke-miterlimit:10;" d="M 206.578125 173.726562 L 174.980469 189.777344 "/>
<path style="fill:none;stroke-width:1.2;stroke-linecap:butt;stroke-linejoin:miter;stroke:rgb(0%,0%,0%);stroke-opacity:1;stroke-miterlimit:10;" d="M 173.082031 225.167969 L 202.78125 244.503906 "/>
<path style="fill:none;stroke-width:1.2;stroke-linecap:butt;stroke-linejoin:miter;stroke:rgb(0%,0%,0%);stroke-opacity:1;stroke-miterlimit:10;" d="M 202.78125 244.503906 L 218.578125 236.480469 "/>
<path style="fill:none;stroke-width:1.2;stroke-linecap:butt;stroke-linejoin:miter;stroke:rgb(0%,0%,100%);stroke-opacity:1;stroke-miterlimit:10;" d="M 218.578125 236.480469 L 234.378906 228.453125 "/>
<path style="fill:none;stroke-width:1.2;stroke-linecap:butt;stroke-linejoin:miter;stroke:rgb(0%,0%,0%);stroke-opacity:1;stroke-miterlimit:10;" d="M 202.164062 235.464844 L 214.800781 229.046875 "/>
<path style="fill:none;stroke-width:1.2;stroke-linecap:butt;stroke-linejoin:miter;stroke:rgb(0%,0%,100%);stroke-opacity:1;stroke-miterlimit:10;" d="M 214.800781 229.046875 L 227.441406 222.625 "/>
<path style="fill:none;stroke-width:1.2;stroke-linecap:butt;stroke-linejoin:miter;stroke:rgb(0%,0%,100%);stroke-opacity:1;stroke-miterlimit:10;" d="M 234.378906 228.453125 L 235.328125 210.757812 "/>
<path style="fill:none;stroke-width:1.2;stroke-linecap:butt;stroke-linejoin:miter;stroke:rgb(0%,0%,0%);stroke-opacity:1;stroke-miterlimit:10;" d="M 235.328125 210.757812 L 236.277344 193.066406 "/>
<path style=" stroke:none;fill-rule:nonzero;fill:rgb(100%,100%,100%);fill-opacity:1;" d="M 229.378906 219.453125 L 240.378906 219.453125 L 240.378906 237.453125 L 229.378906 237.453125 Z M 229.378906 219.453125 "/>
<g style="fill:rgb(0%,0%,100%);fill-opacity:1;">
  <use xlink:href="#glyph0-2" x="229.378906" y="233.067383"/>
</g>
<path style="fill:none;stroke-width:1.2;stroke-linecap:butt;stroke-linejoin:miter;stroke:rgb(0%,0%,0%);stroke-opacity:1;stroke-miterlimit:10;" d="M 236.277344 193.066406 L 206.578125 173.726562 "/>
<path style="fill:none;stroke-width:1.2;stroke-linecap:butt;stroke-linejoin:miter;stroke:rgb(0%,0%,0%);stroke-opacity:1;stroke-miterlimit:10;" d="M 228.753906 198.117188 L 204.996094 182.648438 "/>
</g>
</svg>

<svg xmlns="http://www.w3.org/2000/svg" xmlns:xlink="http://www.w3.org/1999/xlink" width="300pt" height="300pt" viewBox="0 0 300 300"><defs><symbol overflow="visible"><path d="M.75 2.656v-13.234h7.5V2.656zm.844-.844h5.812V-9.733H1.594zm0 0"/></symbol><symbol overflow="visible" id="a"><path d="M8.03-10.578v1.437C7.47-9.4 6.94-9.6 6.44-9.735c-.5-.133-.98-.204-1.438-.204-.813 0-1.438.157-1.875.47-.438.312-.656.76-.656 1.343 0 .48.143.844.436 1.094.29.24.844.436 1.656.593l.89.187c1.103.21 1.915.578 2.44 1.11.53.53.795 1.242.795 2.124 0 1.063-.355 1.87-1.062 2.422C6.915-.05 5.875.22 4.5.22 3.977.22 3.426.155 2.844.03 2.258-.08 1.656-.253 1.03-.483V-2c.603.336 1.193.59 1.767.766.57.168 1.14.25 1.703.25.844 0 1.492-.164 1.953-.5.457-.332.688-.805.688-1.422 0-.54-.167-.96-.5-1.266-.324-.3-.86-.523-1.61-.672l-.905-.187C3.02-5.25 2.22-5.595 1.72-6.063 1.226-6.532.983-7.18.983-8.017c0-.968.336-1.726 1.016-2.28.688-.563 1.63-.845 2.828-.845.508 0 1.03.046 1.563.14.532.094 1.08.234 1.64.422zm0 0"/></symbol><symbol overflow="visible" id="b"><path d="M1.47-10.938h2L8.31-1.78v-9.158H9.75V0h-2L2.906-9.14V0H1.47zm0 0"/></symbol></defs><g><path fill="#fff" d="M0 0h300v300H0z"/><path d="M112.18 183.098l16.55-6.328" stroke-width="1.2" stroke="#cc0" stroke-miterlimit="10" fill="none"/><path d="M128.73 176.77l16.55-6.333M89.91 155.527l11.133 13.786" stroke-width="1.2" stroke="#000" stroke-miterlimit="10" fill="none"/><path d="M101.043 169.313l11.137 13.785" stroke-width="1.2" stroke="#cc0" stroke-miterlimit="10" fill="none"/><path d="M107.18 174.098h10v18h-10zm0 0" fill="#fff"/><use xlink:href="#a" x="107.18" y="187.712" fill="#cc0"/><path d="M145.28 170.438l-1.81-35.395M136.773 167.324l-1.45-28.312M145.28 170.438l29.7 19.34M143.47 135.043l-17.11-4.606" stroke-width="1.2" stroke="#000" stroke-miterlimit="10" fill="none"/><path d="M126.36 130.438l-17.11-4.61" stroke-width="1.2" stroke="#00f" stroke-miterlimit="10" fill="none"/><path d="M143.47 135.043l27.57-22.27" stroke-width="1.2" stroke="#000" stroke-miterlimit="10" fill="none"/><path d="M109.25 125.828l-9.672 14.852" stroke-width="1.2" stroke="#00f" stroke-miterlimit="10" fill="none"/><path d="M99.578 140.68l-9.668 14.847" stroke-width="1.2" stroke="#000" stroke-miterlimit="10" fill="none"/><path d="M114.3 133.352l-7.734 11.878" stroke-width="1.2" stroke="#00f" stroke-miterlimit="10" fill="none"/><path d="M106.566 145.23l-7.734 11.88" stroke-width="1.2" stroke="#000" stroke-miterlimit="10" fill="none"/><path d="M104.25 116.828h11v18h-11zm0 0" fill="#fff"/><use xlink:href="#b" x="104.25" y="130.442" fill="#00f"/><path d="M89.91 155.527l-35.394 1.813M54.516 157.34L35.25 127.594M171.04 112.773l33.07 12.743M177.344 106.27l26.457 10.19M165.54 77.766l5.5 35.007M204.11 125.516l27.57-22.27M231.68 103.246l-5.5-35.012M222.89 101.04l-4.398-28.01M231.68 103.246l33.07 12.742M226.18 68.234l-33.07-12.738M193.11 55.496l-27.57 22.27M195.59 64.207l-22.055 17.816M174.98 189.777l-1.898 35.39M183.117 193.762l-1.52 28.312M206.578 173.727l-31.598 16.05M173.082 225.168l29.7 19.336M202.78 244.504l15.798-8.024" stroke-width="1.2" stroke="#000" stroke-miterlimit="10" fill="none"/><path d="M218.578 236.48l15.8-8.027" stroke-width="1.2" stroke="#00f" stroke-miterlimit="10" fill="none"/><path d="M202.164 235.465l12.637-6.418" stroke-width="1.2" stroke="#000" stroke-miterlimit="10" fill="none"/><path d="M214.8 229.047l12.64-6.422M234.38 228.453l.948-17.695" stroke-width="1.2" stroke="#00f" stroke-miterlimit="10" fill="none"/><path d="M235.328 210.758l.95-17.692" stroke-width="1.2" stroke="#000" stroke-miterlimit="10" fill="none"/><path d="M229.38 219.453h11v18h-11zm0 0" fill="#fff"/><use xlink:href="#b" x="229.379" y="233.067" fill="#00f"/><path d="M236.277 193.066l-29.7-19.34M228.754 198.117l-23.758-15.47" stroke-width="1.2" stroke="#000" stroke-miterlimit="10" fill="none"/></g></svg>
